X: 67
T: The High Part Of The Road
M: 6/8
L: 1/8
R: jig
K:Gmaj
"G"~B3 "C"cBc|"G"ded "C"cAG|"D"F2D DED|"G"DGG "D"FGA|
"G"~B3 "C"cBc|"D"dcA d2e|fed "D7"cAF|"D"AGF "G"~G3:|
|:"G"~g3 "D"def|"G"g2a bag|"D"~f3 def|afd "D7"cAd|
"G"~g3 "D"def|"G"g2a bag|"D"fed "D7"cAF|"D"AGF "G"G3:|


